src/icons/plastic.svg

<?xml version="1.0" encoding="UTF-8"?>
<svg version="1.1" viewBox="0 0 16 16" xmlns="http://www.w3.org/2000/svg">
 <g transform="matrix(.92694 0 0 .92694 .58491 .58479)" fill="#ff9800">
  <path d="m13.582 3.978-4.87-2.789c-0.441-0.253-0.983-0.253-1.424 0l-4.87 2.789c-0.281 0.161-0.494 0.409-0.614 0.7-0.07 0.17-0.107 0.354-0.107 0.544v5.557c0 0.514 0.266 0.941 0.712 1.197l0.69 0.393 0.021-6.519c0-0.138 0.03-0.281 0.077-0.406 0.092-0.226 0.262-0.432 0.481-0.557l3.771-2.159c0.342-0.196 0.761-0.196 1.103 0l3.771 2.159c0.263 0.151 0.45 0.401 0.523 0.687 0.023 0.089 0.035 0.181 0.035 0.276v4.303c0 0.398-0.213 0.765-0.558 0.963l-3.771 2.159c-0.172 0.099-0.364 0.147-0.556 0.146l1e-3 1.579c0.246 0 0.494-0.063 0.714-0.189l4.87-2.789c0.446-0.255 0.721-0.73 0.721-1.244v-5.556c0-0.132-0.018-0.261-0.053-0.384-0.098-0.359-0.335-0.67-0.667-0.86z"/>
  <path d="m8.395 11.782 2.705-1.549c0.248-0.142 0.4-0.405 0.4-0.691v-3.085c0-0.065-8e-3 -0.128-0.023-0.19-0.051-0.209-0.186-0.391-0.377-0.501l-2.705-1.548c-0.245-0.14-0.546-0.14-0.791 0l-2.704 1.548c-0.17 0.098-0.296 0.253-0.358 0.432-0.026 0.081-0.043 0.172-0.043 0.259l-0.01 6.696 1.443 0.81v-3.138l1.672 0.957c0.12 0.069 0.254 0.104 0.388 0.105 0.139 2e-3 0.279-0.033 0.403-0.105zm-2.235-2.456c-0.147-0.084-0.238-0.241-0.238-0.41v-1.832c0-0.056 0.01-0.11 0.028-0.161 0.038-0.104 0.111-0.193 0.21-0.249l1.606-0.919c0.145-0.083 0.324-0.083 0.47 0l1.606 0.919c0.118 0.068 0.2 0.182 0.227 0.312 5e-3 0.028 0.01 0.069 0.01 0.098v1.832c0 0.169-0.091 0.326-0.238 0.41l-1.606 0.919c-0.073 0.042-0.154 0.063-0.235 0.063s-0.162-0.021-0.235-0.062z"/>
 </g>
</svg>

<svg viewBox="0 0 16 16" xmlns="http://www.w3.org/2000/svg">
  <path
    d="M13.582 3.978L8.712 1.189C8.271 0.936 7.729 0.936 7.288 1.189L2.418 3.978C2.137 4.139 1.924 4.387 1.804 4.678C1.734 4.848 1.697 5.032 1.697 5.222V10.779C1.697 11.293 1.963 11.72 2.409 11.976L3.099 12.369L3.12 5.85C3.12 5.712 3.15 5.569 3.197 5.444C3.289 5.218 3.459 5.012 3.678 4.887L7.449 2.728C7.791 2.532 8.21 2.532 8.552 2.728L12.323 4.887C12.586 5.038 12.773 5.288 12.846 5.574C12.869 5.663 12.881 5.755 12.881 5.85V10.153C12.881 10.551 12.668 10.918 12.323 11.116L8.552 13.275C8.38 13.374 8.188 13.422 7.996 13.421L7.997 15C8.243 15 8.491 14.937 8.711 14.811L13.581 12.022C14.027 11.767 14.302 11.292 14.302 10.778V5.222C14.302 5.09 14.284 4.961 14.249 4.838C14.151 4.479 13.914 4.168 13.582 3.978Z"
    fill="#EF6C00"
  />
  <path
    d="M8.395 11.782L11.1 10.233C11.348 10.091 11.5 9.828 11.5 9.542V6.457C11.5 6.392 11.492 6.329 11.477 6.267C11.426 6.058 11.291 5.876 11.1 5.766L8.395 4.218C8.15 4.078 7.849 4.078 7.604 4.218L4.9 5.766C4.73 5.864 4.604 6.019 4.542 6.198C4.516 6.279 4.499 6.37 4.499 6.457L4.489 13.153L5.932 13.963V10.825L7.604 11.782C7.724 11.851 7.858 11.886 7.992 11.887C8.131 11.889 8.271 11.854 8.395 11.782ZM6.16 9.326C6.013 9.242 5.922 9.085 5.922 8.916V7.084C5.922 7.028 5.932 6.974 5.95 6.923C5.988 6.819 6.061 6.73 6.16 6.674L7.766 5.755C7.911 5.672 8.09 5.672 8.236 5.755L9.842 6.674C9.96 6.742 10.042 6.856 10.069 6.986C10.074 7.014 10.079 7.055 10.079 7.084V8.916C10.079 9.085 9.988 9.242 9.841 9.326L8.235 10.245C8.162 10.287 8.081 10.308 8 10.308C7.919 10.308 7.838 10.287 7.765 10.246L6.16 9.326Z"
    fill="#EF6C00"
  />
</svg>
